X:1
T:In monte oliveti
T:IN MONTE OLIVETI 
T:Sammlung MUSICA SACRA, 1856 - o. No. (3A)
T:Nicolo JOMELLI
T:© Edition Monika Feinen, Creative Commons Attribution-NonCommercial-ShareAlike 4.0
T:© Edition Monika Feinen, Creative Commons Attribution-NonCommercial-ShareAlike 4.0
T:© Edition Monika Feinen, Creative Commons Attribution-NonCommercial-ShareAlike 4.0
C:Nicolo Jommelli
Z:© Edition Monika Feinen, Creative Commons Attribution-NonCommercial-ShareAlike 4.0
%%score [ 1 2 3 4 ]
L:1/8
M:4/4
K:C
V:1 treble nm="CANTO."
V:2 treble nm="ALTO."
V:3 treble-8 nm="TENORE."
V:4 bass nm="BASSO."
V:1
 z8 | z8 | z8 | z8 | z8 | z8 | z8 | z8 | z8 | G8 | _e8 | d4 g4- | g4 f4 | _e2 f2 g4 | g4 ^f4 | %15
w: |||||||||In|mon-|te o-|* li-|ve- * *||
 g4 z4 | z8 | F8 | _E8 | _E4 E4 | D4 _E4- | E4 D4 | _E4 _B4- | B4 _B4 | z4 _B4 | _B4 B2 B2 | %26
w: ti||o-|ra-|vit ad|pa- *||trem: Pa-|* ter,|si|fi- e- ri|
 _B4 A4 | _B4 B4- | B2 c2 d2 _e2 | f4 z4 | z4 f4- | f4 _e4 | z4 _e4- | e4 d4 | z4 _B4- | B4 _B4 | %36
w: po- *|test, tran-|* se- at a|me|ca-|* lix,|ca-|* lix,|ca-|* lix|
 A4 _B4- | B4 A4 | _B4"^SOLO." f4- | f4 d2 d2 | d4 _B4 | G4 g2 _e2 |{d} c8 | d8 | c8 | _B4 c4 | %46
w: i- *||ste. Spi-|* ri- tus|qui- dem|promp- * tus|est,|ca-|ro,|ca- ro|
 d4 _e4 | f2 g2 _e2 c2 | _B4 A4 | _B8 |"^TUTTI." _B4 d4 | !fermata!z8 | c4 A4 | !fermata!z8 | _B8 | %55
w: au- tem,|au- * tem in-|fir- *|ma;|fi- at,||si- cut||fi-|
 G4 d4 | c8 | A4 =e4 | d4 D4 | A8- | A8 | A16 |] %62
w: at vo-|lun-|tas, vo-|lun- tas|tu-||a.|
V:2
 z8 | z8 | z8 | z8 | z8 | z8 | D8 | _B8 | A4 c4- | c4 _B4 | _A2 _B2 c4 | c4 =B4 | c8 | B6 c2 | A8 | %15
w: ||||||In|mon-|te o-|* li-|ve- * *||ti,|o- li-|ve-|
 G4 z4 | z8 | D8 | _B,8 | C4 _A,4 | _B,8- | B,8 | _B,4 G4- | G4 G4 | z4 G4 | F4 G2 F2 | _E8 | %27
w: ti||o-|ra-|vit ad|pa-||trem: Pa-|* ter,|si|fi- e- ri|po-|
 F4 z4 | _B,6 C2 | D2 _E2 F4 | _B2 B2 A2 A2 | G4 _B4- | B4 A4 | z4 F4- | F4 _E2 D2 | C8- | C4 D4 | %37
w: test,|tran- se-|at a me,|tran- se- at a|me ca-|* lix,|ca-|* lix, *|ca-|* lix|
 C8 | D4 z4 | z8 | z8 | z8 | z8 | z8 | z8 | z8 | z8 | z8 | z8 | z8 |"^TUTTI." F4 F4 | !fermata!z8 | %52
w: i-|ste.||||||||||||fi- at,||
 F4 F4 | !fermata!z8 | D8 | D4 D4 | _E8 | =E4 E4 | F4 G4 | G4 F4 | E8 | F16 |] %62
w: si- cut||fi-|at vo-|lun-|tas, vo-|lun- tas|tu- *||a.|
V:3
 z8 | z8 | z8 | A8 | f8 | e4 g4- | g4 f4 | _e2 f2 g4- | g4 ^f4 | g4 z4 | z8 | G8 | _A8 | G8 | z8 | %15
w: |||In|mon-|te o-|* li-|ve- * *||ti||o-|ra-|vit,||
 G8 | _A8- | A8 | G8 | z4 _E4 | F4 G4 | F8 | G4 _e4- | e4 _e4 | z4 _B4 | _B4 B2 B2 | c8 | d4 z4 | %28
w: o-|ra-||vit,|ad|pa- *||trem: Pa-|* ter,|si|fi- e- ri|po-|test,|
 z4 _B4- | B2 c2 d2 _e2 | f4 z4 | _B8 | c4 c4- | c4 _B2 A2 | G8- | G8 | F8 | F8 | F4"^SOLO." d4- | %39
w: tran-|* se- at a|me|ca-|lix, ca-|* lix, *|ca-||lix|i-|ste. Spi-|
 d4 _B2 B2 | _B4 G4 | _E4 _e2 c2 |{B} A8 | _B8 | A8 | z8 | _B4 c4 | d4 g2 _e2 | f8 | _B8 | %50
w: * ri- tus|qui- dem|promp- * tus|est,|ca-|ro,||ca- ro|au- tem in-|fir-|ma;|
"^TUTTI." d4 _B4 | !fermata!z8 | A4 c4 | !fermata!z8 | G4 G4- | G4 G4 | G4 A4 | A4 A4 | A4 d4 | %59
w: fi- at,||si- cut||fi- at|_ vo-|lun- *|tas, vo-|lun- tas|
 ^c4 d4- | d4 ^c4 | d16 |] %62
w: tu- *||a.|
V:4
 D,8 | _B,8 | A,4 D4- | D4 C4 | _B,2 C2 D4- | D4 ^C4 | D4 z4 | z8 | D,8 | _E,6 D,2 | C,8 | z8 | %12
w: In|mon-|te o-|* li-|ve- * *||ti||o-|ra- *|vit,||
 z8 | z8 | D,8 | _E,8 | C,8 | _B,,8 | _E,8 | _A,,4 C,4 | _B,,8- | B,,8 | _E,4 E,4- | E,4 _E,4 | %24
w: ||o-|ra-|vit,|o-|ra-|vit ad|pa-||trem: Pa-|* ter,|
 z4 _E,4 | D,4 _E,2 D,2 | C,8 | _B,,4 z4 | z8 | _B,,6 C,2 | D,2 _E,2 F,4 | G,8 | F,8 | _B,8 | %34
w: si|fi- e- ri|po-|test,||tran- se-|at a me|ca-|lix,|ca-|
 _E,8 | =E,8 | F,4 _B,,4 | F,,8 | _B,,4 z4 | z8 | z8 | z8 | z8 | z8 | z8 | z8 | z8 | z8 | z8 | z8 | %50
w: ||* lix,|i-|ste.||||||||||||
"^TUTTI." _B,4 _B,,4 | !fermata!z8 | F,4 F,,4 | !fermata!z8 | _B,,8 | =B,,4 B,,4 | C,8 | ^C,4 C,4 | %58
w: fi- at,||si- cut||fi-|at vo-|lun-|tas, vo-|
 D,4 _B,,4 | A,,8- | A,,8 | D,16 |] %62
w: lun- tas|tu-||a.|

